X:1
T:Title
%%score { 1 | ( 2 3 ) }
L:1/8
Q:1/4=84
M:6/8
K:Eb
V:1 treble nm="Grand Piano"
V:2 bass 
V:3 bass 
V:1
 G>GG GFE | B>BB B3 | G>AG GFE | [DF]>[DF][EG] [FA]3 | G>GG GFE | B>BB B3 | c>de EG>[DF] | E6 | %8
w: F.~A.~Blackmer * * * * *||||||||
 G>FE [Ge]3 | [Ec]>[CEA][Ee] B3 | B>GB cBG |[M:7/8] [DF]2 G A3 z |[M:3/4] G>F E [Ge]3 | %13
w: |||||
 [Ec]>[CEA] [Ee] [EB]3 | [CAf]>[CAe] [EAc][EGB] [Ge]>[Fd] | [Ge]6 |] %16
w: |||
V:2
 [E,B,E]>[E,B,E][E,B,E] [E,B,E][E,A,E][E,G,] | [E,G,E]>[F,B,D][G,B,E] [G,B,E]3 | %2
 [E,B,E]>[E,CE][E,B,E] [E,B,E][D,B,][C,=A,C] | [B,,B,]>[B,,B,][B,,B,] [B,,B,]3 | %4
 [E,B,E]>[E,B,E][E,B,E] [E,B,E][E,A,E][E,G,] | [E,G,E]>[F,B,D][G,B,E] [G,B,E]3 | %6
 [A,E]>[A,DE][A,CE] [=A,C][B,D]>[B,,_A,] | [E,G,]6 | [E,B,E]>[E,A,E][E,G,] [E,B,]3 | %9
 [A,,A,]>A,,[C,A,] [E,G,E]3 | [E,G,E]>[B,E][E,G,E] [E,A,E][E,G,E][E,B,E] |[M:7/8] z2 E F3 z | %12
[M:3/4] [E,B,E]>[E,A,E] [E,G,] [E,B,]3 | [A,,A,]>A,, [C,A,] [E,G,]3 | %14
 A,,>A,, A,,B,, [B,,B,]>[B,,B,] | [E,B,]6 |] %16
V:3
 x6 | x6 | x6 | x6 | x6 | x6 | x6 | x6 | x6 | x6 | x6 | %11
[M:7/8] [B,,B,]-[B,,B,]-[B,,B,]- [B,,B,]3 z |[M:3/4] x6 | x6 | x6 | x6 |] %16

